X: 110206
Q: "Reel."
M: C
L: 1/8
K: G
|: g |!segno!\
efge fdBd | efge f2(df) |
efge afge | fdBd e2(eB) |\
efge fdBd | efge f2(df) |\
efge afge | fdBd efgd |]\
"_Fine."HG4 ||



